X: 21282
U: Q=!diminuendo(!
U: q=!diminuendo)!
M: 6/8
L: 1/8
K: D
V: 1 name="2"
e/f/ |\
gec AGE | DFA d2c | B^AB gfe | (d3 c2)e/f/ |\
gec AGE | DFA d2c | Bgf edc | (e3 "^D.C."d2) |]
QB3q Qd3q | f3 z2f | f(fg) f(fg) | fed c2QFq |\
Q^A3q Q^c3q | Qe3q z2g | fed cB^A | (c3 "^D.C."B2) |]


